X:36
T:Rolling in the Ryegrass
T:Shannon Breezes, The
E:7
I:speed 350
R:reel
M:C|
K:D
|A2AF DFAF|G2BG dGBG|ABAF DFAF|GBAF EFDF|\
A2AF DFAF|G2BG dGBG|~A3 F DFAF|GBAF E2D2||*
|ABde ~f3d|~g3e fedB|ABde fefg|afdf e2d2|\
ABde fAdf|~g3e fedB|ABde fefg|afdf e2d2||**
<end>
<start>
